file/rockstar.svg

<svg clip-rule="evenodd" fill-rule="evenodd" stroke-linejoin="round" stroke-miterlimit="1.41421" viewBox="0 0 560 400" xmlns="http://www.w3.org/2000/svg"><g fill-rule="nonzero" transform="matrix(1.25 0 0 1.25 145 75.6875)"><path d="m211.7 161.6c0 18.4-14.8 32.7-33.7 32.7h-140.1c-18.9.1-33.6-14.3-33.6-32.7v-124.5c0-18.4 14.9-32.9 34-32.9h140.2c18.7 0 33.3 14.4 33.3 32.9v124.5z" fill="#ffab00"/><path d="m173 122.1h-17.9l-3.1-19.5-11.5 19.3h-18.1l11 11.6-9 19.5 19.8-11.8 15.5 12-2.9-19.7" fill="#fff"/><path d="m213.3 192.7c0-.7-.2-1.2-.8-1.4-.3-.1-.8-.2-1.5-.2v.1h-2v5.4h1v-2.1h.7c.5 0 .9.1 1.1.2.3.2.5.6.5 1.2v.7h.9v-1.2c0-.2-.1-.5-.3-.8s-.5-.4-.9-.5c.3-.1.6-.2.8-.3.3-.3.5-.6.5-1.1zm-1.5.9c-.2.1-.5.1-.9.1h-.9v-1.9h.8c.6 0 1 .1 1.2.2.2.2.4.4.4.8s-.2.7-.6.8zm-.8-4.6c-1.4 0-2.5.4-3.5 1.4-.9 1-1.4 2.1-1.4 3.5s.4 2.5 1.4 3.5 2.1 1.5 3.5 1.5 2.5-.5 3.5-1.5 1.5-2.2 1.5-3.5c0-1.4-.5-2.5-1.5-3.5-1-.9-2.1-1.4-3.5-1.4zm3 7.9c-.8.9-1.8 1.3-3 1.3s-2.2-.5-3-1.3-1.2-1.8-1.2-3 .4-2.2 1.2-3c.9-.9 1.9-1.3 3-1.2 1.2 0 2.2.4 3 1.2s1.2 1.8 1.2 3-.4 2.2-1.2 3zm-35.6-196.9h-140.1c-21.1 0-38.3 16.7-38.3 37.1v124.5c0 20.7 16.6 37 37.9 37h140.2c21.3 0 37.9-16.3 37.9-37v-124.5c0-20.8-16.5-37.1-37.6-37.1zm33.4 161.6c-.1 18.4-14.9 32.7-33.8 32.7h-140.1c-18.9.1-33.6-14.3-33.6-32.7v-124.5c0-18.4 14.9-32.9 34-32.9h140.2c18.7 0 33.3 14.4 33.3 32.9zm-57.7-70.4-15.8 26.8h-3c-1.8-3.1-2.5-7.6-2.5-10.4 0-4.6.3-9.1.3-15 0-7.8-2.3-11.9-8.4-13.4v-.2c12.9-1.8 18.8-10.4 18.8-22.4 0-17.1-11.4-20.8-26.3-20.8h-40.1l-17 80.4h21.3l6.2-29.3h14.2c7.6 0 10.7 3.7 10.7 10.8 0 5.4-.6 9.7-.6 13.8 0 1.5.3 5.1 1.4 6.5l15.4 16.3-13.3 28.5 28.4-16.9 21.2 16.3-3.9-26.9 24.4-17.1h-27.1zm-45.9-19.3h-17l4.1-19.4h15.8c5.6 0 11.5 1.5 11.5 8.3 0 8.7-6.7 11.1-14.4 11.1zm48.7 61.6 2.9 19.8-15.6-12.1-19.8 11.8 9.1-19.4-11-11.6h18.1l11.4-19.3 3.1 19.5h18z" fill="#040301"/></g></svg>

<?xml version="1.0" encoding="UTF-8" standalone="no"?>
<!DOCTYPE svg PUBLIC "-//W3C//DTD SVG 1.1//EN" "http://www.w3.org/Graphics/SVG/1.1/DTD/svg11.dtd">
<svg width="100%" height="100%" viewBox="0 0 560 400" version="1.1" xmlns="http://www.w3.org/2000/svg" xmlns:xlink="http://www.w3.org/1999/xlink" xml:space="preserve" xmlns:serif="http://www.serif.com/" style="fill-rule:evenodd;clip-rule:evenodd;stroke-linejoin:round;stroke-miterlimit:1.41421;">
    <g transform="matrix(1.25,0,0,1.25,145,75.6875)">
        <path id="orange" d="M211.7,161.6C211.7,180 196.9,194.3 178,194.3L37.9,194.3C19,194.4 4.3,180 4.3,161.6L4.3,37.1C4.3,18.7 19.2,4.2 38.3,4.2L178.5,4.2C197.2,4.2 211.8,18.6 211.8,37.1L211.8,161.6L211.7,161.6Z" style="fill:rgb(255,171,0);fill-rule:nonzero;"/>
        <path id="white" d="M173,122.1L155.1,122.1L152,102.6L140.5,121.9L122.4,121.9L133.4,133.5L124.4,153L144.2,141.2L159.7,153.2L156.8,133.5" style="fill:white;fill-rule:nonzero;"/>
        <path id="black" d="M213.3,192.7C213.3,192 213.1,191.5 212.5,191.3C212.2,191.2 211.7,191.1 211,191.1L211,191.2L209,191.2L209,196.6L210,196.6L210,194.5L210.7,194.5C211.2,194.5 211.6,194.6 211.8,194.7C212.1,194.9 212.3,195.3 212.3,195.9L212.3,196.6L213.2,196.6L213.2,195.4C213.2,195.2 213.1,194.9 212.9,194.6C212.7,194.3 212.4,194.2 212,194.1C212.3,194 212.6,193.9 212.8,193.8C213.1,193.5 213.3,193.2 213.3,192.7ZM211.8,193.6C211.6,193.7 211.3,193.7 210.9,193.7L210,193.7L210,191.8L210.8,191.8C211.4,191.8 211.8,191.9 212,192C212.2,192.2 212.4,192.4 212.4,192.8C212.4,193.2 212.2,193.5 211.8,193.6ZM211,189C209.6,189 208.5,189.4 207.5,190.4C206.6,191.4 206.1,192.5 206.1,193.9C206.1,195.3 206.5,196.4 207.5,197.4C208.5,198.4 209.6,198.9 211,198.9C212.4,198.9 213.5,198.4 214.5,197.4C215.5,196.4 216,195.2 216,193.9C216,192.5 215.5,191.4 214.5,190.4C213.5,189.5 212.4,189 211,189ZM214,196.9C213.2,197.8 212.2,198.2 211,198.2C209.8,198.2 208.8,197.7 208,196.9C207.2,196.1 206.8,195.1 206.8,193.9C206.8,192.7 207.2,191.7 208,190.9C208.9,190 209.9,189.6 211,189.7C212.2,189.7 213.2,190.1 214,190.9C214.8,191.7 215.2,192.7 215.2,193.9C215.2,195.1 214.8,196.1 214,196.9ZM178.4,0L38.3,0C17.2,0 0,16.7 0,37.1L0,161.6C0,182.3 16.6,198.6 37.9,198.6L178.1,198.6C199.4,198.6 216,182.3 216,161.6L216,37.1C216,16.3 199.5,0 178.4,0ZM211.8,161.6C211.7,180 196.9,194.3 178,194.3L37.9,194.3C19,194.4 4.3,180 4.3,161.6L4.3,37.1C4.3,18.7 19.2,4.2 38.3,4.2L178.5,4.2C197.2,4.2 211.8,18.6 211.8,37.1L211.8,161.6ZM154.1,91.2L138.3,118L135.3,118C133.5,114.9 132.8,110.4 132.8,107.6C132.8,103 133.1,98.5 133.1,92.6C133.1,84.8 130.8,80.7 124.7,79.2L124.7,79C137.6,77.2 143.5,68.6 143.5,56.6C143.5,39.5 132.1,35.8 117.2,35.8L77.1,35.8L60.1,116.2L81.4,116.2L87.6,86.9L101.8,86.9C109.4,86.9 112.5,90.6 112.5,97.7C112.5,103.1 111.9,107.4 111.9,111.5C111.9,113 112.2,116.6 113.3,118L128.7,134.3L115.4,162.8L143.8,145.9L165,162.2L161.1,135.3L185.5,118.2L158.4,118.2L154.1,91.2ZM108.2,71.9L91.2,71.9L95.3,52.5L111.1,52.5C116.7,52.5 122.6,54 122.6,60.8C122.6,69.5 115.9,71.9 108.2,71.9ZM156.9,133.5L159.8,153.3L144.2,141.2L124.4,153L133.5,133.6L122.5,122L140.6,122L152,102.7L155.1,122.2L173.1,122.2L156.9,133.5Z" style="fill:rgb(4,3,1);fill-rule:nonzero;"/>
    </g>
</svg>
